src/images/v2/404-mobile.svg

<svg fill="none" height="89" viewBox="0 0 264 89" width="264" xmlns="http://www.w3.org/2000/svg"><g fill="#231f20"><path d="m125.855 77.8774c.063.0517.137.0896.216.1113.08.0217.162.0268.244.015l.06.0165 9.207-3.3737c.103-.0276.196-.0828.27-.1596s.126-.1724.15-.2763c.025-.1125.018-.23-.021-.3385-.039-.1084-.109-.2034-.2-.2735l-8.109-5.9066c-.112-.0872-.252-.1305-.393-.1215-.142.0089-.275.0695-.375.1702-.094.0888-.156.2063-.176.3341-.021.1278.002.2588.063.3726l1.938 4.7553-2.962 3.7833c-.081.0884-.135.1985-.154.317-.02.1184-.005.24.044.3498.047.0896.115.1666.198.2246zm8.843-3.9112-7.503 2.7227 2.365-3.0309c.088-.0909.144-.2074.161-.3325s-.006-.2523-.067-.3632l-1.563-3.8421z"/><path d="m146.801 84.9906c3.155.3256 6.622-.5761 10.402-2.7051 4.265-2.3878 6.973-5.4544 7.984-9.1329 1.07-3.897.197-8.4496-2.527-13.1776-1.255-2.1487-2.853-4.0773-4.732-5.7092-1.498-1.2779-2.814-2.7547-3.911-4.3893-.622-.9461-1.161-1.9432-1.614-2.9805-.206-.4781-.442-.9433-.704-1.393-.909-1.5803-2.121-2.9661-3.566-4.0784-1.445-1.1122-3.095-1.929-4.856-2.4038s-3.598-.5982-5.407-.3633c-1.808.235-3.553.8237-5.134 1.7326-1.58.9088-2.967 2.1201-4.079 3.5646-1.113 1.4444-1.93 3.0938-2.405 4.854-.475 1.7601-.599 3.5965-.364 5.4044.235 1.8078.824 3.5517 1.734 5.132.325.5618.69 1.1005 1.089 1.6124.641.8319 1.212 1.7153 1.707 2.6413 1.024 1.8354 1.774 3.811 2.225 5.8637.5 2.2281 1.33 4.3688 2.464 6.351 3.332 5.6409 7.179 8.6994 11.694 9.1771zm-5.862-45.1007c1.98.2164 3.88.8988 5.545 1.9915 1.665 1.0926 3.047 2.5642 4.033 4.2941.246.3941.467.804.66 1.227.488 1.1126 1.074 2.1796 1.751 3.1885 1.152 1.739 2.537 3.3114 4.117 4.6728 1.768 1.5387 3.274 3.3539 4.46 5.3749 2.548 4.4205 3.379 8.6288 2.393 12.1846-.915 3.3317-3.382 6.1402-7.331 8.3552-8.637 4.8679-15.109 2.9531-20.248-5.997-1.075-1.8693-1.868-3.8871-2.353-5.9881-.476-2.1745-1.266-4.2678-2.348-6.2136-.543-.9891-1.165-1.9325-1.86-2.8212-1.525-1.939-2.445-4.2843-2.645-6.7429-.2-2.4587.329-4.9217 1.521-7.0814 1.192-2.1598 2.994-3.9207 5.182-5.0628 2.187-1.1421 4.662-1.6147 7.117-1.359z"/><path d="m141.159 50.6912c.134.2063.219.4404.249.6847l.608 4.6659c.01.0665-.001.1345-.03.1951s-.076.1111-.134.1449-.125.0494-.192.0447-.132-.0295-.184-.071l-3.74-2.8588c-.194-.1521-.354-.3424-.471-.5589z"/><path d="m137.135 52.642c-.084-.2164-.122-.4477-.113-.6796l.151-3.1199c.004-.0559.021-.1101.051-.1577.029-.0476.07-.087.119-.1147s.103-.0428.159-.0439.112.0117.162.0375l2.778 1.4276c.203.1079.383.2537.531.4294z"/></g><path d="m147.979 55.2953c-1.92-.5272-3.049-2.5103-2.522-4.4294.527-1.9192 2.511-3.0476 4.431-2.5205s3.049 2.5102 2.522 4.4293c-.528 1.9192-2.511 3.0477-4.431 2.5206z" fill="#f7a6a8"/><path d="m133.782 63.5169c-1.92-.5271-3.049-2.5102-2.522-4.4293.528-1.9192 2.512-3.0477 4.431-2.5205 1.92.5271 3.049 2.5102 2.522 4.4293-.527 1.9192-2.511 3.0476-4.431 2.5205z" fill="#f7a6a8"/><path d="m144.319 49.5163c1.641 2.8825 4.946 4.106 7.359 2.7337.79-.4712 1.411-1.1805 1.773-2.0262-.652-.9791-1.217-2.0131-1.689-3.0903-1.036-2.366-2.736-4.3812-4.894-5.802-.43.0932-.844.2532-1.225.4742-2.405 1.3745-2.989 4.8295-1.324 7.7106z" fill="#231f20"/><path d="m128.212 58.9964c.313.5375.661 1.0531 1.044 1.5431.674.8608 1.277 1.7746 1.804 2.7326.847.0568 1.693-.1367 2.431-.5565 2.39-1.3785 2.958-4.8624 1.318-7.7448-1.641-2.8825-4.946-4.106-7.359-2.7337-.384.2111-.733.4822-1.032.803.113 2.1004.728 4.1431 1.794 5.9563z" fill="#231f20"/><path d="m147.905 47.8569c-.433-.1189-.687-.5662-.568-.999s.566-.6872.999-.5683.688.5661.569.999c-.119.4328-.566.6872-1 .5683z" fill="#fff"/><path d="m130.573 58.3144c-.433-.1189-.688-.5661-.569-.9989.119-.4329.566-.6873.999-.5684s.688.5662.569.999-.566.6873-.999.5683z" fill="#fff"/><path d="m128.967 31.1443c.384.0628.75.2067 1.074.4221.323.2154.598.4973.804.827.254.3208.428.6968.509 1.0976s.067.8151-.042 1.2092c-.31.8167-.884 1.5062-1.632 1.9583l.712 1.1177-.921.6606-1.286-1.7583.332-.2299c.647-.4097 1.184-.9715 1.563-1.6363.129-.2833.174-.5975.131-.9056-.044-.3081-.175-.5974-.377-.8338-.124-.2094-.29-.3908-.487-.5326-.198-.1417-.423-.2408-.661-.2908-.245-.0352-.493-.0217-.732.0398-.239.0614-.464.1695-.661.3181-.425.2579-.734.6699-.863 1.1501-.044.2323-.039.4712.014.7016.054.2303.154.447.296.6362l-.991.6508c-.3-.4196-.477-.9144-.511-1.429-.031-.493.082-.9845.324-1.4149.278-.4761.661-.8818 1.122-1.1851.661-.4727 1.477-.6774 2.283-.5728zm1.931 9.4494c-.113-.021-.22-.0646-.316-.1281-.095-.0636-.177-.1457-.24-.2416-.067-.0944-.114-.2016-.138-.3149-.023-.1134-.023-.2304.001-.3436.021-.1128.065-.2202.128-.3158.064-.0955.146-.1773.242-.2403.09-.0637.192-.1078.299-.1295.108-.0217.219-.0204.327.0038.222.0492.418.1811.547.3692.129.188.182.4181.148.6436-.017.1104-.057.2159-.117.3095-.061.0936-.141.1731-.235.2332-.092.0684-.196.1174-.307.144-.111.0265-.226.0301-.339.0105z" fill="#231f20"/><path clip-rule="evenodd" d="m110.98 2.98568c-16.9278 5.56526-28.34 19.03232-28.34 41.41742 0 30.5831 21.124 44.531 48.521 44.531s48.521-13.9479 48.521-44.531c0-30.4552-21.124-44.4031-48.521-44.4031-7.122 0-13.82.942592-19.834 2.87274l5.177 11.26456 6.351-9.67617 9.364 12.05477c22.479.3716 30.052 12.6404 30.052 27.8872 0 15.4835-7.81 28.0238-31.11 28.0238s-31.11-12.5403-31.11-28.0238 7.81-27.8959 31.11-27.8959c.199 0 .397.0009.594.0027l-8.875-11.42492-6.432 9.79962zm99.177 54.13972-.053-.0988-13.384 16.6799h-1.246l-8.533-10.7305.501-5.6487 52.746-56.17564h.512l11.01-.63981v56.81545h12.29l-1.408 16.3792h-10.882v14.7158h-17.283v-14.7158h-15.285l-8.875-16.3792h24.16l.128-27.1281zm8.572 16.5811-8.684-16.0264-12.86 16.0264zm-23.719 0-8.115-10.2057-.349 3.9356v.1279l-.512 6.1422zm-166.7223-39.3093.2664.1735 10.0667 6.5546 9.9-10.9261-.128 27.1281h-24.4524l14.4334-15.9294-9.7514-6.3494-.5243 11.8531-.0136.3078-.2627-.161-10.6384-6.5221-15.77514 16.801-.896167 10.1091v.1279l-.512093 6.1422h48.3928v14.7158h17.2831v-14.7158h10.882l1.4083-16.3792h-12.2903v-56.81545l-11.01.63981h-.512l-36.7166 39.10424 10.3116 6.3218.5247-11.8628z" fill="#4fc4f9" fill-rule="evenodd"/></svg>

<svg width="264" height="89" viewBox="0 0 264 89" fill="none" xmlns="http://www.w3.org/2000/svg">
<path d="M125.855 77.8774C125.918 77.9291 125.992 77.967 126.071 77.9887C126.151 78.0104 126.233 78.0155 126.315 78.0037L126.375 78.0202L135.582 74.6465C135.685 74.6189 135.778 74.5637 135.852 74.4869C135.926 74.4101 135.978 74.3145 136.002 74.2106C136.027 74.0981 136.02 73.9806 135.981 73.8721C135.942 73.7637 135.872 73.6687 135.781 73.5986L127.672 67.692C127.56 67.6048 127.42 67.5615 127.279 67.5705C127.137 67.5794 127.004 67.64 126.904 67.7407C126.81 67.8295 126.748 67.947 126.728 68.0748C126.707 68.2026 126.73 68.3336 126.791 68.4474L128.729 73.2027L125.767 76.986C125.686 77.0744 125.632 77.1845 125.613 77.303C125.593 77.4214 125.608 77.543 125.657 77.6528C125.704 77.7424 125.772 77.8194 125.855 77.8774V77.8774ZM134.698 73.9662L127.195 76.6889L129.56 73.658C129.648 73.5671 129.704 73.4506 129.721 73.3255C129.738 73.2004 129.715 73.0732 129.654 72.9623L128.091 69.1202L134.698 73.9662Z" fill="#231F20"/>
<path d="M146.801 84.9906C149.956 85.3162 153.423 84.4145 157.203 82.2855C161.468 79.8977 164.176 76.8311 165.187 73.1526C166.257 69.2556 165.384 64.703 162.66 59.975C161.405 57.8263 159.807 55.8977 157.928 54.2658C156.43 52.9879 155.114 51.5111 154.017 49.8765C153.395 48.9304 152.856 47.9333 152.403 46.896C152.197 46.4179 151.961 45.9527 151.699 45.503C150.79 43.9227 149.578 42.5369 148.133 41.4246C146.688 40.3124 145.038 39.4956 143.277 39.0208C141.516 38.546 139.679 38.4226 137.87 38.6575C136.062 38.8925 134.317 39.4812 132.736 40.3901C131.156 41.2989 129.769 42.5102 128.657 43.9547C127.544 45.3991 126.727 47.0485 126.252 48.8087C125.777 50.5688 125.653 52.4052 125.888 54.2131C126.123 56.0209 126.712 57.7648 127.622 59.3451C127.947 59.9069 128.312 60.4456 128.711 60.9575C129.352 61.7894 129.923 62.6728 130.418 63.5988C131.442 65.4342 132.192 67.4098 132.643 69.4625C133.143 71.6906 133.973 73.8313 135.107 75.8135C138.439 81.4544 142.286 84.5129 146.801 84.9906ZM140.939 39.8899C142.919 40.1063 144.819 40.7887 146.484 41.8814C148.149 42.974 149.531 44.4456 150.517 46.1755C150.763 46.5696 150.984 46.9795 151.177 47.4025C151.665 48.5151 152.251 49.5821 152.928 50.591C154.08 52.33 155.465 53.9024 157.045 55.2638C158.813 56.8025 160.319 58.6177 161.505 60.6387C164.053 65.0592 164.884 69.2675 163.898 72.8233C162.983 76.155 160.516 78.9635 156.567 81.1785C147.93 86.0464 141.458 84.1316 136.319 75.1815C135.244 73.3122 134.451 71.2944 133.966 69.1934V69.1934C133.49 67.0189 132.7 64.9256 131.618 62.9798C131.075 61.9907 130.453 61.0473 129.758 60.1586C128.233 58.2196 127.313 55.8743 127.113 53.4157C126.913 50.957 127.442 48.494 128.634 46.3343C129.826 44.1745 131.628 42.4136 133.816 41.2715C136.003 40.1294 138.478 39.6568 140.933 39.9125L140.939 39.8899Z" fill="#231F20"/>
<path d="M141.159 50.6912C141.293 50.8975 141.378 51.1316 141.408 51.3759L142.016 56.0418C142.026 56.1083 142.015 56.1763 141.986 56.2369C141.957 56.2975 141.91 56.348 141.852 56.3818C141.794 56.4156 141.727 56.4312 141.66 56.4265C141.593 56.4218 141.528 56.397 141.476 56.3555L137.736 53.4967C137.542 53.3446 137.382 53.1543 137.265 52.9378L141.159 50.6912Z" fill="#231F20"/>
<path d="M137.135 52.642C137.051 52.4256 137.013 52.1943 137.022 51.9624L137.173 48.8425C137.177 48.7866 137.194 48.7324 137.224 48.6848C137.253 48.6372 137.294 48.5978 137.343 48.5701C137.392 48.5424 137.446 48.5273 137.502 48.5262C137.558 48.5251 137.614 48.5379 137.664 48.5637L140.442 49.9913C140.645 50.0992 140.825 50.245 140.973 50.4207L137.135 52.642Z" fill="#231F20"/>
<path d="M147.979 55.2953C146.059 54.7681 144.93 52.785 145.457 50.8659C145.984 48.9467 147.968 47.8183 149.888 48.3454C151.808 48.8725 152.937 50.8556 152.41 52.7747C151.882 54.6939 149.899 55.8224 147.979 55.2953Z" fill="#F7A6A8"/>
<path d="M133.782 63.5169C131.862 62.9898 130.733 61.0067 131.26 59.0876C131.788 57.1684 133.772 56.0399 135.691 56.5671C137.611 57.0942 138.74 59.0773 138.213 60.9964C137.686 62.9156 135.702 64.044 133.782 63.5169Z" fill="#F7A6A8"/>
<path d="M144.319 49.5163C145.96 52.3988 149.265 53.6223 151.678 52.25C152.468 51.7788 153.089 51.0695 153.451 50.2238C152.799 49.2447 152.234 48.2107 151.762 47.1335C150.726 44.7675 149.026 42.7523 146.868 41.3315C146.438 41.4247 146.024 41.5847 145.643 41.8057C143.238 43.1802 142.654 46.6352 144.319 49.5163Z" fill="#231F20"/>
<path d="M128.212 58.9964C128.525 59.5339 128.873 60.0495 129.256 60.5395C129.93 61.4003 130.533 62.3141 131.06 63.2721C131.907 63.3289 132.753 63.1354 133.491 62.7156C135.881 61.3371 136.449 57.8532 134.809 54.9708C133.168 52.0883 129.863 50.8648 127.45 52.2371C127.066 52.4482 126.717 52.7193 126.418 53.0401C126.531 55.1405 127.146 57.1832 128.212 58.9964V58.9964Z" fill="#231F20"/>
<path d="M147.905 47.8569C147.472 47.738 147.218 47.2907 147.337 46.8579C147.456 46.4251 147.903 46.1707 148.336 46.2896C148.769 46.4085 149.024 46.8557 148.905 47.2886C148.786 47.7214 148.339 47.9758 147.905 47.8569Z" fill="white"/>
<path d="M130.573 58.3144C130.14 58.1955 129.885 57.7483 130.004 57.3155C130.123 56.8826 130.57 56.6282 131.003 56.7471C131.436 56.866 131.691 57.3133 131.572 57.7461C131.453 58.1789 131.006 58.4334 130.573 58.3144Z" fill="white"/>
<path d="M128.967 31.1443C129.351 31.2071 129.717 31.351 130.041 31.5664C130.364 31.7818 130.639 32.0637 130.845 32.3934C131.099 32.7142 131.273 33.0902 131.354 33.491C131.435 33.8918 131.421 34.3061 131.312 34.7002C131.002 35.5169 130.428 36.2064 129.68 36.6585L130.392 37.7762L129.471 38.4368L128.185 36.6785L128.517 36.4486C129.164 36.0389 129.701 35.4771 130.08 34.8123C130.209 34.529 130.254 34.2148 130.211 33.9067C130.167 33.5986 130.036 33.3093 129.834 33.0729C129.71 32.8635 129.544 32.6821 129.347 32.5403C129.149 32.3986 128.924 32.2995 128.686 32.2495C128.441 32.2143 128.193 32.2278 127.954 32.2893C127.715 32.3507 127.49 32.4588 127.293 32.6074C126.868 32.8653 126.559 33.2773 126.43 33.7575C126.386 33.9898 126.391 34.2287 126.444 34.4591C126.498 34.6894 126.598 34.9061 126.74 35.0953L125.749 35.7461C125.449 35.3265 125.272 34.8317 125.238 34.3171C125.207 33.8241 125.32 33.3326 125.562 32.9022C125.84 32.4261 126.223 32.0204 126.684 31.7171C127.345 31.2444 128.161 31.0397 128.967 31.1443ZM130.898 40.5937C130.785 40.5727 130.678 40.5291 130.582 40.4656C130.487 40.402 130.405 40.3199 130.342 40.224C130.275 40.1296 130.228 40.0224 130.204 39.9091C130.181 39.7957 130.181 39.6787 130.205 39.5655C130.226 39.4527 130.27 39.3453 130.333 39.2497C130.397 39.1542 130.479 39.0724 130.575 39.0094C130.665 38.9457 130.767 38.9016 130.874 38.8799C130.982 38.8582 131.093 38.8595 131.201 38.8837C131.423 38.9329 131.619 39.0648 131.748 39.2529C131.877 39.4409 131.93 39.671 131.896 39.8965C131.879 40.0069 131.839 40.1124 131.779 40.206C131.718 40.2996 131.638 40.3791 131.544 40.4392C131.452 40.5076 131.348 40.5566 131.237 40.5832C131.126 40.6097 131.011 40.6133 130.898 40.5937V40.5937Z" fill="#231F20"/>
<path fill-rule="evenodd" clip-rule="evenodd" d="M110.98 2.98568C94.0522 8.55094 82.64 22.018 82.64 44.4031C82.64 74.9862 103.764 88.9341 131.161 88.9341C158.558 88.9341 179.682 74.9862 179.682 44.4031C179.682 13.9479 158.558 0 131.161 0C124.039 0 117.341 0.942592 111.327 2.87274L116.504 14.1373L122.855 4.46113L132.219 16.5159C154.698 16.8875 162.271 29.1563 162.271 44.4031C162.271 59.8866 154.461 72.4269 131.161 72.4269C107.861 72.4269 100.051 59.8866 100.051 44.4031C100.051 28.9196 107.861 16.5072 131.161 16.5072C131.36 16.5072 131.558 16.5081 131.755 16.5099L122.88 5.08498L116.448 14.8846L110.98 2.98568ZM210.157 57.1254L210.104 57.0266L196.72 73.7065H195.474L186.941 62.976L187.442 57.3273L240.188 1.15166H240.7L251.71 0.51185V57.3273H264L262.592 73.7065H251.71V88.4223H234.427V73.7065H219.142L210.267 57.3273H234.427L234.555 30.1992L210.157 57.1254ZM218.729 73.7065L210.045 57.6801L197.185 73.7065H218.729ZM195.01 73.7065L186.895 63.5008L186.546 67.4364V67.5643L186.034 73.7065H195.01ZM28.2877 34.3972L28.5541 34.5707L38.6208 41.1253L48.5208 30.1992L48.3928 57.3273H23.9404L38.3738 41.3979L28.6224 35.0485L28.0981 46.9016L28.0845 47.2094L27.8218 47.0484L17.1834 40.5263L1.40826 57.3273L0.512093 67.4364V67.5643L0 73.7065H48.3928V88.4223H65.6759V73.7065H76.5579L77.9662 57.3273H65.6759V0.51185L54.6659 1.15166H54.1539L17.4373 40.2559L27.7489 46.5777L28.2736 34.7149L28.2877 34.3972Z" fill="#4FC4F9"/>
</svg>
